X:1
T:Story of the Cross, 10.9.10.9
T:Story of the Cross, 10.9.10.9
T:Arthur Henry Brown (1830-1926)
T:Public Domain Courtesy of the Cyber Hymnal™
C:Arthur Henry Brown (1830-1926)
Z:Public Domain
Z:Courtesy of the Cyber Hymnal™
%%score ( 1 2 ) ( 3 4 )
L:1/8
Q:1/4=115
M:4/4
K:Eb
V:1 treble 
V:2 treble 
V:3 bass 
V:4 bass 
V:1
 [EG]4 [FG]2 [FG]2 | [EG]2 [EA]2 [FA]4 | E4 [FA]2 [EG]2 | [DF]8 | [DB]4 [EB]2 [FA]2 | %5
 [EG]2 [DF]2 E4 | [EF]4 [DA]4 | [EG]8 | G4 [Gc]2 [GB]2 | [FA]2 [=EG]2 F4 | [F_d]4 [Ec]2 [EB]2 | %11
 [Ec]8 | [Gc]4 [GB]2 [Gc]2 | [FA]2 [=EG]2 F4 | [EG]4 [DG]4 x2 | [EG]8 |] %16
V:2
 x8 | x8 | E4 x4 | x8 | x8 | x4 E4 | x8 | x8 | (=E2 F2) x4 | x4 F4 | x8 | x8 | x8 | x4 F4 | x10 | %15
 x8 |] %16
V:3
 C4 [=B,D]2 [B,D]2 | C2 C2 D4 | [G,B,]4 [F,C]2 [F,C]2 | [B,,D]8 | B,4 [G,B,]2 [D,B,]2 | %5
 [E,B,]2 [B,,A,]2 [C,G,]4 | [A,,C]4 [B,,B,]4 | [E,B,]8 | C4 [=E,C]2 [E,C]2 | %9
 [F,C]2 [F,B,]2 [F,A,]4 | [B,,B,]4 [E,G,]2 [E,G,]2 | A,8 | (G,2 C2) [_E,_D]2 [E,C]2 | %13
 [F,C]2 [G,B,]2 [A,C]4 | C6 z2 =B,2 | [C,C]8 |] %16
V:4
 C4 x4 | C2 C2 (B,2 A,2) | x8 | x8 | (B,2 A,2) x4 | x8 | x8 | x8 | (C,2 D,2) x4 | x8 | x8 | A,8 | %12
 =E,4 x4 | x8 | G,4 G,4 x2 | x8 |] %16

